X: 1
T: The Tongs By The Fire
R: jig
M: 6/8
L: 1/8
K: Gmaj
|:GBd cAF|Gge dBG|cec BdB|ABG FED|
GBd cAF|Gge dBG|cec Bag|1fef gdB:|2fef g2d||
|:gdB gdB|gfa gdB|gfg eag|fef def|
gag fgf|efe def|gdB AGA|1BGF GBd:|2BGF G2D||


Tune 1569	Setting 14977

